static/fa/svgs/regular/file-audio.svg

<svg xmlns="http://www.w3.org/2000/svg" viewBox="0 0 384 512"><!--! Font Awesome Free 6.1.1 by @fontawesome - https://fontawesome.com License - https://fontawesome.com/license/free (Icons: CC BY 4.0, Fonts: SIL OFL 1.1, Code: MIT License) Copyright 2022 Fonticons, Inc.--><path d="m365.3 93.38-74.63-74.64C278.6 6.742 262.3 0 245.4 0H64C28.65 0 0 28.65 0 64l.006 384c0 35.34 28.65 64 64 64H320c35.2 0 64-28.8 64-64V138.6c0-16.9-6.7-33.2-18.7-45.22zM336 448c0 8.836-7.164 16-16 16H64.02c-8.838 0-16-7.164-16-16L48 64.13c0-8.836 7.164-16 16-16h160V128c0 17.67 14.33 32 32 32h79.1v288zM171.5 259.5 136 296H92c-6.62 0-12 5.4-12 12v56c0 6.7 5.38 12 12 12h44l35.5 36.5c7.6 7.5 20.5 2.3 20.5-8.5V268c0-10.7-12.9-16.1-20.5-8.5zm63.6 1.2c-6.25 6.25-6.25 16.38 0 22.62.2.18 20.9 21.78 20.9 52.68 0 30.94-20.77 52.53-20.91 52.69-6.25 6.25-6.25 16.38 0 22.62 3.11 3.09 7.21 4.69 11.31 4.69s8.188-1.562 11.31-4.688C258.1 410.1 288 380.5 288 336s-29.05-74.06-30.28-75.31c-6.22-6.29-16.42-6.29-22.62.01z"/></svg>

<svg xmlns="http://www.w3.org/2000/svg" viewBox="0 0 384 512"><!--! Font Awesome Free 6.1.1 by @fontawesome - https://fontawesome.com License - https://fontawesome.com/license/free (Icons: CC BY 4.0, Fonts: SIL OFL 1.1, Code: MIT License) Copyright 2022 Fonticons, Inc. --><path d="M365.3 93.38l-74.63-74.64C278.6 6.742 262.3 0 245.4 0L64-.0001c-35.35 0-64 28.65-64 64l.0065 384c0 35.34 28.65 64 64 64H320c35.2 0 64-28.8 64-64V138.6C384 121.7 377.3 105.4 365.3 93.38zM336 448c0 8.836-7.164 16-16 16H64.02c-8.838 0-16-7.164-16-16L48 64.13c0-8.836 7.164-16 16-16h160L224 128c0 17.67 14.33 32 32 32h79.1V448zM171.5 259.5L136 296H92C85.38 296 80 301.4 80 308v56C80 370.7 85.38 376 92 376H136l35.5 36.5C179.1 420 192 414.8 192 404v-136C192 257.3 179.1 251.9 171.5 259.5zM235.1 260.7c-6.25 6.25-6.25 16.38 0 22.62C235.3 283.5 256 305.1 256 336c0 30.94-20.77 52.53-20.91 52.69c-6.25 6.25-6.25 16.38 0 22.62C238.2 414.4 242.3 416 246.4 416s8.188-1.562 11.31-4.688C258.1 410.1 288 380.5 288 336s-29.05-74.06-30.28-75.31C251.5 254.4 241.3 254.4 235.1 260.7z"/></svg>
